X:1
T:Title
%%score { 1 | 2 }
L:1/8
M:4/4
K:Bb
V:1 treble nm="Grand Piano"
V:2 bass 
V:1
 z4 z2[Q:1/4=100] D>E | [DF]2 [DG]2 [DG]2 D>E | [DF]2 [DG]2 [DG]2 D>E | [DF]2 [DB]2 [DA]2 [DG]2 | %4
 [EB]2 [EA]2 z2 C>D | [CE]2 [EA]2 [EA]2 G>A | [DG]2 [DF]2 [DB]2 [DB]>[DB] | %7
 [CA]2 [Fc]2 [FA]2 [=EG]2 |[M:3/4] G2 F2 z2 |[M:1/4] F>F |[M:4/4] [DB]4 [EB]3 [EB] | %11
 [DB]6 [DF]>[DF] | c4 c3 c | c6 F>F | [Fd]6 [Fc]>[FB] | [GB]6 [FA]>G | F4 c3 c |[M:3/4] [DB]6 |] %18
V:2
 z4 z2 B,>C | B,,2 F,2 B,2 B,>C | B,,2 F,2 B,2 B,>C | B,,2 F,2 B,2 F,2 | C,2 F,2 A,2 A,>B, | %5
 F,,2 F,2 C2 E>E | B,,2 F,2 B,2 [B,,F,]2 | [C,F,]2 [C,A,]2 [C,C]2 [C,B,]2 | %8
[M:3/4] [F,B,C]2 [F,A,C]2 z2 |[M:1/4] [F,A,E]>[F,A,E] |[M:4/4] [B,,B,]4 [B,,G,]3 [B,,G,] | %11
 [B,,F,]6 [B,,B,]>[B,,B,] | [F,A,F]4 [G,B,=E]3 [G,B,E] | [F,A,F]6 [F,A,]>[F,A,] | %14
 [B,,B,]6 [D,B,]>[D,B,] | [E,B,]6 [E,B,]>[E,B,E] | [F,B,D]4 [F,A,E]3 [F,A,E] |[M:3/4] [B,,B,]6 |] %18

